X:1
T:Napoli, 86.86.86.86 D
T:Napoli, 86.86.86.86 D
T:Daniel Brink Towner, 1899
T:Public Domain Courtesy of the Cyber Hymnal™
C:Daniel Brink Towner, 1899
Z:Public Domain
Z:Courtesy of the Cyber Hymnal™
%%score ( 1 2 ) ( 3 4 )
L:1/8
Q:1/4=93
M:6/8
K:Bb
V:1 treble 
V:2 treble 
V:3 bass 
V:4 bass 
V:1
 [DF] | ([DF][EG])[DF] [Fd]2 [Ec] | [DB]2 [B,D] [DF]2 [DB] | [EA]2 [Ec] [EG]2 [EA] | %4
 ([D-B]3 [DF]2) [DF] | ([DF][EG])[DF] [Fd]2 [Ec] | [DB]2 [B,D] [DF]2 [DB] | (AG)[CA] (cB)G | %8
 [CA]3- [CA]2 [EF] | [EA]2 [DB] ([Ec][DB])[CA] | [DB]2 [Ec] [Fd]2 [Fc] | [Ac]2 [FA] ([=EB][FA])G | %12
 F3- [EF]2 [EF] | [DF][EG][DF] [Fd]2 [Ec] | [DB]2 [B,D] [DF]2 [DB] | [CA]2 [DB] [Fd]2 [Ec] | %16
 [DB]3- [DB]2 [DB] | ([Ec][D=B])[Ec] (AG)[EF] | ([DF][EG])[DF] [DB]2 [FA] | (Gc)[_Ec] [=Ec]2 [Ed] | %20
 [Ec]3- [Ec]2 [EF] | ([DF][EG])[DF] [Fd]2 [Ec] | [DB]2 [B,D] [DF]2 [DB] | [CA]2 [DB] [Fd]2 [Ec] | %24
 [DB]3- [DB]2 |] %25
V:2
 x | x6 | x6 | x6 | x6 | x6 | x6 | C2 =E2 (C/B,/) x | x6 | x6 | x6 | x5 (C/B,/) | A,CD x3 | x6 | %14
 x6 | x6 | x6 | x3 E2 x | x6 | =E2 x4 | x6 | x6 | x6 | x6 | x5 |] %25
V:3
 [B,,B,] | [B,,B,]2 [B,,B,] [B,,B,]2 [B,,B,] | [B,,F,]2 [B,,F,] [B,,B,]2 [B,,F,] | %3
 F,2 [F,A,] [F,C]2 F, | ([B,,-F,]3 [B,,B,]2) [B,,B,] | [B,,B,]2 [B,,B,] [B,,B,]2 [B,,B,] | %6
 [B,,F,]2 [B,,F,] [B,,B,]2 [B,,F,] | (F,=E,)[C,F,] [C,G,]2 [C,E,] | F,3- F,2 [F,A,] | %9
 [F,C]2 [F,B,] (A,B,)F, | [B,,F,]2 [B,,B,] [B,,B,]2 [B,,B,] | [D,F,]2 [C,F,] (G,F,)[C,=E,] | %12
 (F,A,B, [F,C]2) [F,A,] | [B,,B,]2 [B,,B,] [B,,B,]2 [B,,F,] | [B,,F,]2 [B,,F,] [B,,B,]2 [B,,F,] | %15
 F,2 F, [F,B,]2 F, | [B,,F,]3- [B,,F,]2 [B,,F,] | (A,^G,)[F,A,] [F,C]2 [F,A,] | %18
 [B,,B,]2 [B,,B,] [B,,F,]2 [D,B,] | [E,B,]2 [E,G,] [C,G,]2 [C,B,] | [F,A,]3- [F,A,]2 [F,A,] | %21
 [B,,B,]2 [B,,B,] [B,,B,]2 [B,,F,] | [B,,F,]2 [B,,F,] [B,,B,]2 [B,,F,] | F,2 F, [F,B,]2 F, | %24
 [B,,F,]3- [B,,F,]2 |] %25
V:4
 x | x6 | x6 | F,2 x F, x2 | x6 | x6 | x6 | C,2 x4 | F,3- F,2 x | x3 F,2 F, | x6 | x3 C,2 x | %12
 F,3- x3 | x6 | x6 | F,2 F, x F, x | x6 | F,2 x4 | x6 | x6 | x6 | x6 | x6 | F,2 F, x F, x | x5 |] %25

